X:73
T:La taligourdine
R:Jigue
C:trad.
N:1ere strophe trad. autres strophes par S. Piron
A:Nivernais
O:France
Z:S. Piron
M:6/8
L:1/8
Q:1/4=170
K:G
G2B|d2ddcB|A2AG2B|d2ddcB|A3G2B|d2ddcB|A2AG2B|d2ddcB|A3GFE|
D3A3|G2GGFE|D3A3|G3GFE|D3A3|G2GGFE|D3A3|G3||
W:
W:Pour danser la taligourdine
W:Faut-avoir le pied dgag (bis)
W:Pied dgag, passe, passe
W:Pied dgag, pass (bis).
W:
W:Pour danser la taligourdine
W:Faut tenir la main ben serre (bis)
W:Main ben serre, passe, passe
W:Main ben serre, passe.(bis)
W:
W:Pour danser la taligourdine
W:Faut avoir mang tout lger (bis)
W:Mang lger, passe, passe
W:Mang lger, pass.(bis)
W:
W:Pour danser la taligourdine
W:Faut avoir les yeux ben rivs (bis)
W:Yeux ben rivs, passe, passe
W:Yeux ben rivs, pass.(bis)
